svg/icon/etc.svg

<svg xmlns="http://www.w3.org/2000/svg" xmlns:xlink="http://www.w3.org/1999/xlink" width="32" height="32" viewBox="0 0 32 32"><defs><linearGradient id="etc-c" x1="50%" x2="50%" y1="0%" y2="100%"><stop offset="0%" stop-color="#FFF" stop-opacity=".5"/><stop offset="100%" stop-opacity=".5"/></linearGradient><circle id="etc-b" cx="16" cy="15" r="15"/><filter id="etc-a" width="111.7%" height="111.7%" x="-5.8%" y="-4.2%" filterUnits="objectBoundingBox"><feOffset dy=".5" in="SourceAlpha" result="shadowOffsetOuter1"/><feGaussianBlur in="shadowOffsetOuter1" result="shadowBlurOuter1" stdDeviation=".5"/><feComposite in="shadowBlurOuter1" in2="SourceAlpha" operator="out" result="shadowBlurOuter1"/><feColorMatrix in="shadowBlurOuter1" values="0 0 0 0 0 0 0 0 0 0 0 0 0 0 0 0 0 0 0.199473505 0"/></filter><filter id="etc-d" width="125%" height="114.6%" x="-12.5%" y="-5.2%" filterUnits="objectBoundingBox"><feOffset dy=".5" in="SourceAlpha" result="shadowOffsetOuter1"/><feGaussianBlur in="shadowOffsetOuter1" result="shadowBlurOuter1" stdDeviation=".5"/><feColorMatrix in="shadowBlurOuter1" result="shadowMatrixOuter1" values="0 0 0 0 0 0 0 0 0 0 0 0 0 0 0 0 0 0 0.204257246 0"/><feMerge><feMergeNode in="shadowMatrixOuter1"/><feMergeNode in="SourceGraphic"/></feMerge></filter></defs><g fill="none" fill-rule="evenodd"><use fill="#000" filter="url(#etc-a)" xlink:href="#etc-b"/><use fill="#328332" xlink:href="#etc-b"/><use fill="url(#etc-c)" style="mix-blend-mode:soft-light" xlink:href="#etc-b"/><circle cx="16" cy="15" r="14.5" stroke="#000" stroke-opacity=".097"/><g fill="#FFF" filter="url(#etc-d)" transform="translate(9 3)"><path fill-rule="nonzero" d="M6.98852447,12.5527163 L0.267759563,11.9756754 L6.98852447,8.17433816 L6.98852447,12.5527163 Z M6.98852447,17.0137714 L6.98852448,23.9523831 C4.65180592,20.3163567 2.07563468,16.3115204 0,13.0702703 C2.45074991,14.4496436 5.0075075,15.8932179 6.98852448,17.0137714 Z M6.98852447,6.94545187 L0,10.8445946 L6.98852447,1.81144371e-07 L6.98852447,6.94545187 Z"/><path fill-opacity=".601" fill-rule="nonzero" d="M13.7092894,11.9756755 L6.98852448,12.5527164 L6.98852448,8.17433798 L13.7092894,11.9756755 Z M6.98852447,17.0137713 C8.96954145,15.8932177 11.526299,14.4496434 13.977049,13.0702701 C11.9014143,16.3115202 9.32524303,20.3163565 6.98852447,23.9523829 L6.98852448,17.0137712 Z M6.98852448,6.94545168 L6.98852448,0 L13.977049,10.8445944 L6.98852448,6.94545168 Z"/><polygon points="6.989 12.553 13.709 11.976 6.989 15.751" opacity=".2"/><polygon points=".268 12.553 6.989 11.976 .268 15.751" opacity=".603" transform="matrix(-1 0 0 1 7.256 0)"/></g></g></svg>

<svg xmlns="http://www.w3.org/2000/svg" xmlns:xlink="http://www.w3.org/1999/xlink" width="32" height="32" viewBox="0 0 32 32"><defs><linearGradient id="c" x1="50%" x2="50%" y1="0%" y2="100%"><stop offset="0%" stop-color="#FFF" stop-opacity=".5"/><stop offset="100%" stop-opacity=".5"/></linearGradient><circle id="b" cx="16" cy="15" r="15"/><filter id="a" width="111.7%" height="111.7%" x="-5.8%" y="-4.2%" filterUnits="objectBoundingBox"><feOffset dy=".5" in="SourceAlpha" result="shadowOffsetOuter1"/><feGaussianBlur in="shadowOffsetOuter1" result="shadowBlurOuter1" stdDeviation=".5"/><feComposite in="shadowBlurOuter1" in2="SourceAlpha" operator="out" result="shadowBlurOuter1"/><feColorMatrix in="shadowBlurOuter1" values="0 0 0 0 0 0 0 0 0 0 0 0 0 0 0 0 0 0 0.199473505 0"/></filter><filter id="d" width="125%" height="114.6%" x="-12.5%" y="-5.2%" filterUnits="objectBoundingBox"><feOffset dy=".5" in="SourceAlpha" result="shadowOffsetOuter1"/><feGaussianBlur in="shadowOffsetOuter1" result="shadowBlurOuter1" stdDeviation=".5"/><feColorMatrix in="shadowBlurOuter1" result="shadowMatrixOuter1" values="0 0 0 0 0 0 0 0 0 0 0 0 0 0 0 0 0 0 0.204257246 0"/><feMerge><feMergeNode in="shadowMatrixOuter1"/><feMergeNode in="SourceGraphic"/></feMerge></filter></defs><g fill="none" fill-rule="evenodd"><use fill="#000" filter="url(#a)" xlink:href="#b"/><use fill="#328332" xlink:href="#b"/><use fill="url(#c)" style="mix-blend-mode:soft-light" xlink:href="#b"/><circle cx="16" cy="15" r="14.5" stroke="#000" stroke-opacity=".097"/><g fill="#FFF" filter="url(#d)" transform="translate(9 3)"><path fill-rule="nonzero" d="M6.989 12.553l-6.721-.577 6.72-3.802v4.379zm0 4.46v6.94C4.652 20.315 2.076 16.311 0 13.07c2.45 1.38 5.008 2.823 6.989 3.944zm0-10.068L0 10.845 6.989 0v6.945z"/><path fill-opacity=".601" fill-rule="nonzero" d="M13.71 11.976l-6.721.577V8.174l6.72 3.802zm-6.721 5.038c1.98-1.12 4.537-2.564 6.988-3.944-2.076 3.242-4.652 7.246-6.988 10.882v-6.938zm0-10.069V0l6.988 10.845-6.988-3.9z"/><path opacity=".2" d="M6.989 12.553l6.72-.577-6.72 3.775z"/><path opacity=".603" d="M6.988 12.553l-6.721-.577 6.721 3.775z"/></g></g></svg>
